!!!!SEGMENT: pl-lzu--m-15111--001-019_noskowski-zygmunt--spiewnik-dla-dzieci-op-34-19-smigus.krn
!!!cenid: 18xx:4716
!!!COM: Noskowski, Zygmunt
!!!COM-rismID: pe106604
!!!CDT: 1846/05/02-1909/07/23
!!!CNT: Polish
!!!GTL: Śpiewnik dla dzieci, op. 34
!!!OTL: 19. Śmigus
!!!OMV: 019
!!!PDT: 1890
!!!AGN: Secular; Song; Children
!!!YEC: Copyright 2022 Narodowy Instytut Fryderyka Chopina (https://polishscores.org)
!!!YEM: License CC-BY-4.0 (https://creativecommons.org/licenses/by/4.0)
!!!SMS-siglum: PL-LŹu
!!!SMS-shelfmark: M 15111
!!!SMS-variant:
!!!SMS-altvar:
!!!SMS-shelfwork: 001-019 G
!!!NIFC-rismSourceID: 1001234040
!!!NIFC-rismChildID: 1001234040
!!!NIFC-islandoraID: pl-lzu:5455
!!!URL-pdf-islandora: https://repozytorium.nifc.pl/islandora/object/pl-lzu%3A5455/datastream/PDF/view
!!!URL-scan: https://polish.musicsources.pl/pl/lokalizacje/galeria/druki-muzyczne/23228/27 @EN{Scan on Polish Music Sources Website} @PL{Skany w portalu Dziedzictwo Muzyki Polskiej w otwartym dostępie}
!!!IIIF:
!!!ONB-nifc:
!!!AIN: 1 piano 1 vox
!!!key: C
!!!OMD: Allegretto scherzando.
**kern	**kern	**dynam	**kern	**text	**text	**text
*part2	*part2	*part2	*part1	*part1	*part1	*part1
*staff3	*staff2	*staff2,3	*staff1	*staff1	*staff1	*staff1
*I"[Piano]	*I"[Piano]	*	*I"[Voice]	*	*	*
*I'pf	*I'pf	*	*I'V	*	*	*
*Ipiano	*Ipiano	*	*Ivox	*	*	*
*ICklav	*ICklav	*	*ICvox	*	*	*
*IGacomp	*IGacomp	*	*IGsolo	*	*	*
*>[A,B,B,B,C]	*>[A,B,B,B,C]	*>[A,B,B,B,C]	*>[A,B,B,B,C]	*>[A,B,B,B,C]	*>[A,B,B,B,C]	*>[A,B,B,B,C]
*>A	*>A	*>A	*>A	*>A	*>A	*>A
*clefF4	*clefG2	*	*clefG2	*	*	*
*k[]	*k[]	*	*k[]	*	*	*
*C:	*C:	*	*C:	*	*	*
*M6/8	*M6/8	*	*M6/8	*	*	*
=1	=1	=1	=1	=1	=1	=1
!	!LO:TX:a:i:t=Żartobliwie, niezbyt prędko.	!	!	!	!	!
4C/	8c/ 8e	p	2.r	.	.	.
.	8r	.	.	.	.	.
8r	8G/ 8g	.	.	.	.	.
4r	8c/ 8e	.	.	.	.	.
.	8r	.	.	.	.	.
8r	8G/ 8g	.	.	.	.	.
=2	=2	=2	=2	=2	=2	=2
4C/	8c/ 8e	.	2.r	.	.	.
.	8r	.	.	.	.	.
8r	8G/ 8g	.	.	.	.	.
4r	8c/ 8e	.	.	.	.	.
.	8r	.	.	.	.	.
8r	8G/ 8g	.	.	.	.	.
=3!|:	=3!|:	=3!|:	=3!|:	=3!|:	=3!|:	=3!|:
*>B	*>B	*>B	*>B	*>B	*>B	*>B
*	*	*	*	*v:1	*v:2	*v:3
4C/	8c/ 8e	.	4e/	Pa-	Pa-	Pa-
.	8r	.	.	.	.	.
8r	8G/ 8g	.	8g/	-nie-	-nie-	-nie-
4r	8c/ 8f	.	4f/	-necz-	-necz-	-necz-
.	8r	.	.	.	.	.
8r	8A/ 8a	.	8a/	-ka	-ka	-ka
=4	=4	=4	=4	=4	=4	=4
4CC/	8c/ 8e	.	(>4.g/	ma-	ma-	ma-
.	8r	.	.	.	.	.
2r	8G/ 8g	.	.	.	.	.
.	.	.	8qcc/)	.	.	.
.	8c/ 8e	.	4cc\	-ła	-ła	-ła
.	8r	.	.	.	.	.
.	8G/ 8g	.	8r	.	.	.
!!LO:PB:g=original
=5	=5	=5	=5	=5	=5	=5
*	*	*	*	*v:1	*v:2	*v:3
4C/	8B/ 8f	.	4dd\	Ra-	W ką-	Su-
.	8r	.	.	.	.	.
8r	8G/ 8g	.	8g/	-no	-tek	-kien-
4r	8B/ 8f	.	(8g/L	dzi-	się	-kę
.	8r	.	8a/J)	.	.	.
8r	8G/ 8g	.	8b\	-siaj	scho-	zma-
=6	=6	=6	=6	=6	=6	=6
4CC/	8c/ 8e	.	4.cc\	wsta-	-wa-	-cza-
.	8r	.	.	.	.	.
8r	8G/ 8g	.	.	.	.	.
4EE/	8c/ 8e	.	4b\	-ła:	-ła:	-ła:
.	8r	.	.	.	.	.
8r	8G/ 8g	.	8r	.	.	.
=7	=7	=7	=7	=7	=7	=7
8FF/	8A/ 8c	.	4a/	Szmi-	Szmi-	Szmi-
8r	8r	.	.	.	.	.
8DD/	8F/ 8f	.	8cc\	-gus!	-gus!	-gus!
4GG/	8B/ 8f	.	4b\	szmi-	szmi-	szmi-
.	8r	.	.	.	.	.
8r	8G/ 8g	.	8dd\	-gus!	-gus!	-gus!
=8	=8	=8	=8	=8	=8	=8
4CC/	8c/ 8e	.	4cc\	Dyn-	Dyn-	Dyn-
.	8r	.	.	.	.	.
8r	8G/ 8g	.	8ee\	-gus!	-gus!	-gus!
4EE/	8c/ 8e	.	4cc\	dyn-	dyn-	dyn-
.	8r	.	.	.	.	.
8r	8G#X/ 8g#X	.	8b,\	-gus!	-gus!	-gus!
!!LO:LB:g=original
=9	=9	=9	=9	=9	=9	=9
*	*	*	*	*v:1	*v:2	*v:3
4FF/	8A/ 8d	.	4a/	Bo	Bo	Choć
.	8r	.	.	.	.	.
8r	8A/ 8a	.	8dd\	się	sie	sią
4GG/	8B/ 8f	.	(8b/L	wo-	wo-	wo-
.	8r	.	8a/J)	.	.	.
8r	8G/ 8g	.	8g/	-dy	-dy	-dy
=10	=10	=10	=10	=10	=10	=10
[4.CC/	8B/ 8f	.	(>4.g/	ba-	ba-	ba-
.	8r	.	.	.	.	.
.	8G/ 8g	.	.	.	.	.
.	.	.	8qcc/)	.	.	.
4CC/]	8c/ 8e	.	4cc\	-ła.	-ła.	-ła.
.	8r	.	.	.	.	.
8r	8G/ 8g	.	8r	.	.	.
=11	=11	=11	=11	=11	=11	=11
4C/	8c/ 8e	.	2.r	.	.	.
.	8r	.	.	.	.	.
8r	8G/ 8g	.	.	.	.	.
4r	8c/ 8e	.	.	.	.	.
.	8r	.	.	.	.	.
8r	8G/ 8g	.	.	.	.	.
=12:|!	=12:|!	=12:|!	=12:|!	=12:|!	=12:|!	=12:|!
*>C	*>C	*>C	*>C	*>C	*>C	*>C
4r	4c/ 4e	.	2.r	.	.	.
8r	8r	.	.	.	.	.
4C\	4E</ 4G< 4c	.	.	.	.	.
8r	8r	.	.	.	.	.
=13	=13	=13	=13	=13	=13	=13
4CC\	4E</ 4G< 4c	.	2.r	.	.	.
8r	8r	.	.	.	.	.
4r	4r	.	.	.	.	.
8r	8r	.	.	.	.	.
==	==	==	==	==	==	==
*-	*-	*-	*-	*-	*-	*-
!!!system-decoration: p1{p2}
!!!RDF**kern: > = above
!!!RDF**kern: < = below
!!!ENC: Andrzej Gręziak
!!!END: 2025-03-05
!!!ENC: Marta Lawrence
!!!END: 2025-03-20
